data/playwrite-de-va.svg

<svg width="127.47" height="26.376" viewBox="0 0 127.47 26.376" xmlns="http://www.w3.org/2000/svg"><path transform="translate(0 19.628) scale(.014 -.014)" d="m140-14q-47 0-42 29l168 935q3 14 15 20.5t34 6.5h188q103 0 172-24t104-74 35-129q0-82-31-143t-85.5-102.5-126.5-66.5-154-36q-42-6-84.5-8.5t-78.5-3.5l-68-376q-2-14-13-21t-33-7zm128 484q24 0 51.5 1.5t55.5 4 55 6.5q87 14 153 45.5t103 85 37 131.5q0 55-24.5 88.5t-75 49-128.5 15.5h-150z"/><path transform="translate(10.696 19.628) scale(.014 -.014)" d="m-148-17q-19 0-26 11.5t-4.5 26 13 26 27.5 11.5q25 0 57.5 16.5t70.5 47 79 72.5 82.5 92 80 106 71 115 57.5 118.5 39 117 14 109.5q0 15 12.5 22.5t29.5 7.5 29.5-7.5 12.5-22.5q0-51-15.5-110t-43-122.5-65-128-81.5-127-91.5-119.5-95.5-104.5-93.5-83-86-55-73.5-19.5zm325 1q-31 0-48 12.5t-24 32-6 44.5 5 51l113 647q21 119 62 173t107 54q34 0 59-18t38.5-50.5 13.5-77.5q0-19-12.5-28t-29.5-9-29.5 9-12.5 28q0 21-3.5 35.5t-11 22.5-21.5 8q-16 0-29.5-15t-24.5-51-23-101l-118-647q-2-17-2-26.5t4-13 10-3.5q9 0 18 6t19 17.5 21 29.5q7 9 15 11.5t20-4.5q16-8 20-17.5t0-18.5q-11-23-29-46.5t-43.5-39-57.5-15.5z"/><path transform="translate(16.212 19.628) scale(.014 -.014)" d="m183-17q-41 0-72 22.5t-47.5 65-16.5 100.5q0 49 12 98.5t36 94 58.5 79.5 79.5 55.5 100 20.5q31 0 61.5-7.5t60.5-21.5v3q3 12 13.5 17t29.5 5q27 0 36.5-8t5.5-25l-69-378q-4-17-3-26.5t5-13 10-3.5q10 0 18.5 6t18.5 17.5 21 29.5q6 9 14.5 11.5t20.5-4.5q15-8 20-17.5t0-20.5q-9-21-27-44t-43.5-39-58.5-16q-31 0-48.5 12.5t-25 33-7 45 5.5 49.5q1 8 1 17.5t1 19.5q-32-58-67-98t-71.5-60-72.5-20zm-46 198q0-35 7-61.5t22.5-41.5 38.5-15q36 0 76 37.5t79.5 108 74.5 169.5l7 37q-32 15-60 20t-51 5q-36 0-67-15t-54.5-41-39.5-59.5-24.5-70.5-8.5-73z"/><path transform="translate(24.92 19.628) scale(.014 -.014)" d="m441 14q19 14 37.5 27.5t35.5 25 32 21 26 16.5q16 9 26.5 4t15-18 1-26.5-14.5-21.5q-18-11-38-25.5t-41.5-30-43-31.5-42.5-31zm-230-512q-37 0-65 15t-44 41.5-16 59.5q0 34 12 67.5t36 67.5 60.5 71 87.5 79q26 19 51.5 37.5t51.5 38.5l37 209q-25-52-54-90.5t-60-63.5-62-37.5-61-12.5q-42 0-69.5 19t-37.5 59.5 2 103.5l56 320q4 17 13.5 23t29.5 6q27 0 37-8t6-25l-59-324q-5-28-4-49.5t12.5-33.5 37.5-12q35 0 71 28t70.5 79 65.5 120 56 151l3 45q4 17 14 23t30 6q27 0 36.5-8t5.5-25l-127-717q-13-67-32.5-116.5t-47-82-63.5-48.5-80-16zm11 78q23 0 43 12t35.5 35.5 27.5 59.5 20 82l18 104q-14-10-28.5-21t-29.5-21q-36-31-61.5-58t-41-51.5-23-47-7.5-44.5q0-14 5.5-25.5t16-18 25.5-6.5z"/><path transform="translate(33.88 19.628) scale(.014 -.014)" d="m193-19q-38 0-62.5 15t-37.5 42-14.5 63 6.5 77l50 308q3 13 12 21.5t33 8.5q29 0 37-9t5-24l-53-302q-6-33-6.5-60.5t10-43.5 38.5-16 55.5 21.5 51 57.5 43 78.5 31.5 85.5l34 182q3 13 12 21.5t32 8.5q29 0 36.5-9t4.5-24l-47-287q-3-23-4-47t3.5-44 17-32 36.5-12q28 0 55.5 18.5t51 50 41 70.5 27.5 80.5 10 79.5q0 16-2 32.5t-6.5 34-12.5 34.5q-7 18-3.5 31t14.5 20 27 7q18 0 29.5-12t18.5-34q8-17 13-33t7-32.5 2-34.5q0-50-13.5-104t-39-105.5-60.5-92.5-79.5-65.5-96.5-24.5q-43 0-71 17t-42 48.5-18 72.5q-22-41-49-72t-58.5-48.5-68.5-17.5z"/><path transform="translate(45.822 19.628) scale(.014 -.014)" d="m92-15q-19 0-31.5 7t-8.5 23l84 471q4 17 13.5 23t29.5 6q27 0 37-8t6-25l-29-165q25 51 52.5 89t54.5 63 52.5 37.5 47.5 12.5q26 0 48.5-12.5t34.5-30.5q7-9 5-20t-11-22q-10-13-20.5-17t-19.5 4q-11 7-22.5 12.5t-24.5 5.5q-25 0-58-27.5t-67.5-78-66-119-55.5-150.5l-5-53q-2-13-13-19.5t-33-6.5z"/><path transform="translate(52.178 19.628) scale(.014 -.014)" d="m150-16q-52 0-70.5 37t-2.5 109l59 356q4 17 13.5 23t29.5 6q27 0 37-8t6-25l-68-378q-4-23-0.5-33t16.5-10q8 0 15 5.5t16.5 17 21.5 30.5q6 9 14.5 11t20.5-4q15-8 20-17.5t-1-18.5q-17-33-36.5-55.5t-42-34-48.5-11.5zm62 685q-24 0-38 14t-14 42q0 29 16 49.5t49 20.5q24 0 38-14t14-43-16-49-49-20z"/><path transform="translate(56.378 19.628) scale(.014 -.014)" d="m-97-17q-14 0-20 11.5t-4 26 11.5 26 25.5 11.5q23 0 55 28t70 78 79 115 82 139 79 150.5 71 150 57.5 136.5 37.5 109q4 18 13.5 24t30.5 6q27 0 36.5-8t5.5-25l-152-852q40 11 81 37t91 70.5 112 110.5q5 6 14 8.5t21-7.5q13-10 13.5-19t-6.5-15q-50-54-103-105.5t-110.5-91-123.5-54.5l-6-32q-2-13-12.5-19.5t-33.5-6.5q-18 0-30 7t-9 23l3 22q-29 3-54 13t-40 28-15 44q0 29 21 49t54 20q17 0 31.5-5.5t25.5-14.5l89 504q-35-85-74.5-169t-81.5-161-85.5-143-86-115-84-76.5-79.5-27.5zm339 138q0-5 5-10t16-8 29-4q-1 17-12.5 25.5t-21.5 8.5q-16 0-16-12z"/><path transform="translate(65.198 19.628) scale(.014 -.014)" d="m243-19q-61 0-103 26.5t-63.5 74.5-21.5 108 19.5 118.5 56.5 106 91 76 123 28.5q46 0 78.5-14.5t50-41.5 17.5-67-22.5-73-61-59-88-45.5-102.5-33-106-22.5l3 70q34 7 73 16t77 22 69 30 49.5 38.5 18.5 48.5q0 28-19.5 40t-48.5 12q-42 0-77-20.5t-59.5-55.5-38.5-77.5-14-86.5q0-43 12.5-74.5t37-48 60.5-16.5q35 0 61 13.5t48 35 43 46.5q11 14 26 11.5t26-13.5q12-11 14.5-22.5t-7.5-25.5q-34-45-70-73t-74-40-78-12z"/><path transform="translate(76.762 19.628) scale(.014 -.014)" d="m139 0q-44 0-39 28l167 922q3 14 15 20.5t34 6.5h182q106 0 185-28.5t131-78.5 78-116 26-141q0-110-28-204t-81-169-127.5-129-168-82.5-202.5-28.5zm59 85h113q89 0 167 23t141 67.5 108 109 69 147 24 181.5q0 63-21.5 114t-63.5 88-102 57-136 20h-153z"/><path transform="translate(90.048 19.628) scale(.014 -.014)" d="m361-19q-86 0-148.5 29.5t-96.5 84.5-34 130q0 53 18.5 100.5t52 87 79.5 66.5 101 38q-46 15-77 43.5t-47 66.5-16 81q0 50 15 94t42 79 65 60.5 85 39 100 13.5q56 0 107-15t91.5-42.5 66.5-63.5q13-18 12-32t-17-25q-14-12-28-10.5t-29 16.5q-23 26-55.5 45.5t-72.5 29.5-87 10q-45 0-82.5-14.5t-65-40.5-42-62.5-14.5-79.5q0-47 22-82t62-55 95-20h129q16 0 20.5-8.5t0.5-31.5q-3-21-11-30.5t-23-9.5h-130q-58 0-108-18t-87-51.5-58-77.5-21-94q0-53 24-89.5t69-55 105-18.5q54 0 102 18.5t90 54.5 75 86q14 21 27.5 22t30.5-11q16-10 16-24t-12-34q-41-63-92.5-107.5t-114-68.5-134.5-24z"/><path transform="translate(104.92 19.628) scale(.014 -.014)" d="m350-14q-21 0-32.5 9.5t-15.5 37.5l-156 916q-2 18 7.5 29t33.5 15q22 3 31.5-2.5t11.5-22.5l142-844 437 841q12 21 24 26t35 2q24-4 31.5-17t-2.5-31l-484-919q-12-22-25-31t-38-9z"/><path transform="translate(115.99 19.628) scale(.014 -.014)" d="m20-14q-26 0-34.5 14t2.5 35l483 919q12 23 25.5 31.5t37.5 8.5q21 0 32.5-9t15.5-37l171-917q4-20-7-32.5t-37-12.5q-22 0-30.5 8.5t-12.5 28.5l-43 246h-416l-129-244q-13-24-23.5-31.5t-34.5-7.5zm229 363h359l-95 508z"/></svg>

<?xml version="1.0" encoding="utf-8" ?>
<svg baseProfile="tiny" height="100%" version="1.2" width="100%" xmlns="http://www.w3.org/2000/svg" xmlns:ev="http://www.w3.org/2001/xml-events" xmlns:xlink="http://www.w3.org/1999/xlink"><defs /><g><path d="M140 -14Q93 -14 98 15L266 950Q269 964 281.0 970.5Q293 977 315 977H503Q606 977 675.0 953.0Q744 929 779.0 879.0Q814 829 814 750Q814 668 783.0 607.0Q752 546 697.5 504.5Q643 463 571.0 438.0Q499 413 417 402Q375 396 332.5 393.5Q290 391 254 390L186 14Q184 0 173.0 -7.0Q162 -14 140 -14ZM268 470Q292 470 319.5 471.5Q347 473 375.0 475.5Q403 478 430 482Q517 496 583.0 527.5Q649 559 686.0 612.5Q723 666 723 744Q723 799 698.5 832.5Q674 866 623.5 881.5Q573 897 495 897H345Z" transform="translate(0.0, 72) scale(0.072, -0.072)" /><path d="M-148 -17Q-167 -17 -174.0 -5.5Q-181 6 -178.5 20.5Q-176 35 -165.5 46.5Q-155 58 -138 58Q-113 58 -80.5 74.5Q-48 91 -10.0 121.5Q28 152 69.0 194.0Q110 236 151.5 286.0Q193 336 231.5 392.0Q270 448 302.5 507.0Q335 566 360.0 625.5Q385 685 399.0 742.5Q413 800 413 852Q413 867 425.5 874.5Q438 882 455.0 882.0Q472 882 484.5 874.5Q497 867 497 852Q497 801 481.5 742.0Q466 683 438.5 619.5Q411 556 373.5 491.5Q336 427 292.0 364.5Q248 302 200.5 245.0Q153 188 105.0 140.5Q57 93 11.5 57.5Q-34 22 -74.5 2.5Q-115 -17 -148 -17ZM177 -16Q146 -16 129.0 -3.5Q112 9 105.0 28.5Q98 48 99.0 73.0Q100 98 104 124L217 771Q238 890 279.0 944.0Q320 998 386 998Q420 998 445.0 980.0Q470 962 483.5 929.5Q497 897 497 852Q497 833 484.5 824.0Q472 815 455.0 815.0Q438 815 425.5 824.0Q413 833 413 852Q413 873 409.5 887.5Q406 902 398.5 910.0Q391 918 377 918Q361 918 347.5 903.0Q334 888 323.0 852.0Q312 816 300 751L182 104Q180 87 180.0 77.5Q180 68 184.0 64.5Q188 61 194 61Q203 61 212.0 67.0Q221 73 231.0 84.5Q241 96 252 114Q259 123 267.0 125.5Q275 128 287 121Q303 113 307.0 103.5Q311 94 307 85Q296 62 278.0 38.5Q260 15 234.5 -0.5Q209 -16 177 -16Z" transform="translate(55.007999999999996, 72) scale(0.072, -0.072)" /><path d="M183 -17Q142 -17 111.0 5.5Q80 28 63.5 70.5Q47 113 47 171Q47 220 59.0 269.5Q71 319 95.0 363.5Q119 408 153.5 443.0Q188 478 233.0 498.5Q278 519 333 519Q364 519 394.5 511.5Q425 504 455 490V493Q458 505 468.5 510.0Q479 515 498 515Q525 515 534.5 507.0Q544 499 540 482L471 104Q467 87 468.0 77.5Q469 68 473.0 64.5Q477 61 483 61Q493 61 501.5 67.0Q510 73 520.0 84.5Q530 96 541 114Q547 123 555.5 125.5Q564 128 576 121Q591 113 596.0 103.5Q601 94 596 83Q587 62 569.0 39.0Q551 16 525.5 0.0Q500 -16 467 -16Q436 -16 418.5 -3.5Q401 9 393.5 29.5Q386 50 386.5 74.5Q387 99 392 124Q393 132 393.0 141.5Q393 151 394 161Q362 103 327.0 63.0Q292 23 255.5 3.0Q219 -17 183 -17ZM137 181Q137 146 144.0 119.5Q151 93 166.5 78.0Q182 63 205 63Q241 63 281.0 100.5Q321 138 360.5 208.5Q400 279 435 378L442 415Q410 430 382.0 435.0Q354 440 331 440Q295 440 264.0 425.0Q233 410 209.5 384.0Q186 358 170.0 324.5Q154 291 145.5 254.0Q137 217 137 181Z" transform="translate(83.37599999999999, 72) scale(0.072, -0.072)" /><path d="M441 14Q460 28 478.5 41.5Q497 55 514.0 66.5Q531 78 546.0 87.5Q561 97 572 104Q588 113 598.5 108.0Q609 103 613.5 90.0Q618 77 614.5 63.5Q611 50 600 42Q582 31 562.0 16.5Q542 2 520.5 -13.5Q499 -29 477.5 -45.0Q456 -61 435 -76ZM211 -498Q174 -498 146.0 -483.0Q118 -468 102.0 -441.5Q86 -415 86 -382Q86 -348 98.0 -314.5Q110 -281 134.0 -247.0Q158 -213 194.5 -176.0Q231 -139 282 -97Q308 -78 333.5 -59.5Q359 -41 385 -21L422 188Q397 136 368.0 97.5Q339 59 308.0 34.0Q277 9 246.0 -3.5Q215 -16 185 -16Q143 -16 115.5 3.0Q88 22 78.0 62.5Q68 103 80 166L136 486Q140 503 149.5 509.0Q159 515 179 515Q206 515 216.0 507.0Q226 499 222 482L163 158Q158 130 159.0 108.5Q160 87 171.5 75.0Q183 63 209 63Q244 63 280.0 91.0Q316 119 350.5 170.0Q385 221 416.0 290.0Q447 359 472 441L475 486Q479 503 489.0 509.0Q499 515 519 515Q546 515 555.5 507.0Q565 499 561 482L434 -235Q421 -302 401.5 -351.5Q382 -401 354.5 -433.5Q327 -466 291.0 -482.0Q255 -498 211 -498ZM222 -420Q245 -420 265.0 -408.0Q285 -396 300.5 -372.5Q316 -349 328.0 -313.0Q340 -277 348 -231L366 -127Q352 -137 337.5 -148.0Q323 -159 308 -169Q272 -200 246.5 -227.0Q221 -254 205.5 -278.5Q190 -303 182.5 -325.5Q175 -348 175 -370Q175 -384 180.5 -395.5Q186 -407 196.5 -413.5Q207 -420 222 -420Z" transform="translate(128.16, 72) scale(0.072, -0.072)" /><path d="M193 -19Q155 -19 130.5 -4.0Q106 11 93.0 38.0Q80 65 78.5 101.0Q77 137 85 178L135 486Q138 499 147.0 507.5Q156 516 180 516Q209 516 217.0 507.0Q225 498 222 483L169 181Q163 148 162.5 120.5Q162 93 172.5 77.0Q183 61 211 61Q239 61 266.5 82.5Q294 104 317.5 140.0Q341 176 360.5 218.5Q380 261 392 304L426 486Q429 499 438.0 507.5Q447 516 470 516Q499 516 506.5 507.0Q514 498 511 483L464 196Q461 173 460.0 149.0Q459 125 463.5 105.0Q468 85 480.5 73.0Q493 61 517 61Q545 61 572.5 79.5Q600 98 623.5 129.5Q647 161 664.5 200.0Q682 239 692.0 280.5Q702 322 702 360Q702 376 700.0 392.5Q698 409 693.5 426.5Q689 444 681 461Q674 479 677.5 492.0Q681 505 692.0 512.0Q703 519 719 519Q737 519 748.5 507.0Q760 495 767 473Q775 456 780.0 440.0Q785 424 787.0 407.5Q789 391 789 373Q789 323 775.5 269.0Q762 215 736.5 163.5Q711 112 676.0 71.0Q641 30 596.5 5.5Q552 -19 500 -19Q457 -19 429.0 -2.0Q401 15 387.0 46.5Q373 78 369 119Q347 78 320.0 47.0Q293 16 261.5 -1.5Q230 -19 193 -19Z" transform="translate(174.24, 72) scale(0.072, -0.072)" /><path d="M92 -15Q73 -15 60.5 -8.0Q48 -1 52 15L136 486Q140 503 149.5 509.0Q159 515 179 515Q206 515 216.0 507.0Q226 499 222 482L193 317Q218 368 245.5 406.0Q273 444 300.0 469.0Q327 494 352.5 506.5Q378 519 400 519Q426 519 448.5 506.5Q471 494 483 476Q490 467 488.0 456.0Q486 445 477 434Q467 421 456.5 417.0Q446 413 437 421Q426 428 414.5 433.5Q403 439 390 439Q365 439 332.0 411.5Q299 384 264.5 333.5Q230 283 198.5 214.5Q167 146 143 64L138 11Q136 -2 125.0 -8.5Q114 -15 92 -15Z" transform="translate(235.656, 72) scale(0.072, -0.072)" /><path d="M150 -16Q98 -16 79.5 21.0Q61 58 77 130L136 486Q140 503 149.5 509.0Q159 515 179 515Q206 515 216.0 507.0Q226 499 222 482L154 104Q150 81 153.5 71.0Q157 61 170 61Q178 61 185.0 66.5Q192 72 201.5 83.5Q211 95 223 114Q229 123 237.5 125.0Q246 127 258 121Q273 113 278.0 103.5Q283 94 277 85Q260 52 240.5 29.5Q221 7 198.5 -4.5Q176 -16 150 -16ZM212 669Q188 669 174.0 683.0Q160 697 160 725Q160 754 176.0 774.5Q192 795 225 795Q249 795 263.0 781.0Q277 767 277 738Q277 709 261.0 689.0Q245 669 212 669Z" transform="translate(268.344, 72) scale(0.072, -0.072)" /><path d="M-97 -17Q-111 -17 -117.0 -5.5Q-123 6 -121.0 20.5Q-119 35 -109.5 46.5Q-100 58 -84 58Q-61 58 -29.0 86.0Q3 114 41.0 164.0Q79 214 120.0 279.0Q161 344 202.0 418.0Q243 492 281.0 568.5Q319 645 352.0 718.5Q385 792 409.5 855.0Q434 918 447 964Q451 982 460.5 988.0Q470 994 491 994Q518 994 527.5 986.0Q537 978 533 961L381 109Q421 120 462.0 146.0Q503 172 553.0 216.5Q603 261 665 327Q670 333 679.0 335.5Q688 338 700 328Q713 318 713.5 309.0Q714 300 707 294Q657 240 604.0 188.5Q551 137 493.5 97.5Q436 58 370 43L364 11Q362 -2 351.5 -8.5Q341 -15 318 -15Q300 -15 288.0 -8.0Q276 -1 279 15L282 37Q253 40 228.0 50.0Q203 60 188.0 78.0Q173 96 173 122Q173 151 194.0 171.0Q215 191 248 191Q265 191 279.5 185.5Q294 180 305 171L394 675Q359 590 319.5 506.0Q280 422 238.0 345.0Q196 268 152.5 202.0Q109 136 66.5 87.0Q24 38 -17.5 10.5Q-59 -17 -97 -17ZM242 121Q242 116 247.0 111.0Q252 106 263.0 103.0Q274 100 292 99Q291 116 279.5 124.5Q268 133 258 133Q242 133 242 121Z" transform="translate(289.944, 72) scale(0.072, -0.072)" /><path d="M243 -19Q182 -19 140.0 7.5Q98 34 76.5 82.0Q55 130 55 190Q55 250 74.5 308.5Q94 367 131.0 414.5Q168 462 222.0 490.5Q276 519 345 519Q391 519 423.5 504.5Q456 490 473.5 463.0Q491 436 491 396Q491 356 468.5 323.0Q446 290 407.5 264.0Q369 238 319.5 218.5Q270 199 217.0 185.5Q164 172 111 163L114 233Q148 240 187.0 249.0Q226 258 264.0 271.0Q302 284 333.0 301.0Q364 318 382.5 339.5Q401 361 401 388Q401 416 381.5 428.0Q362 440 333 440Q291 440 256.0 419.5Q221 399 196.5 364.0Q172 329 158.0 286.5Q144 244 144 200Q144 157 156.5 125.5Q169 94 193.5 77.5Q218 61 254 61Q289 61 315.0 74.5Q341 88 363.0 109.5Q385 131 406 156Q417 170 432.0 167.5Q447 165 458 154Q470 143 472.5 131.5Q475 120 465 106Q431 61 395.0 33.0Q359 5 321.0 -7.0Q283 -19 243 -19Z" transform="translate(335.30400000000003, 72) scale(0.072, -0.072)" /><path d="M139 0Q95 0 100 28L267 950Q270 964 282.0 970.5Q294 977 316 977H498Q604 977 683.0 948.5Q762 920 814.0 870.0Q866 820 892.0 754.0Q918 688 918 613Q918 503 890.0 409.0Q862 315 809.0 240.0Q756 165 681.5 111.0Q607 57 513.5 28.5Q420 0 311 0ZM198 85H311Q400 85 478.0 108.0Q556 131 619.0 175.5Q682 220 727.0 284.5Q772 349 796.0 431.5Q820 514 820 613Q820 676 798.5 727.0Q777 778 735.0 815.0Q693 852 633.0 872.0Q573 892 497 892H344Z" transform="translate(394.77600000000007, 72) scale(0.072, -0.072)" /><path d="M361 -19Q275 -19 212.5 10.5Q150 40 116.0 95.0Q82 150 82 225Q82 278 100.5 325.5Q119 373 152.5 412.5Q186 452 232.0 479.0Q278 506 333 517Q287 532 256.0 560.5Q225 589 209.0 627.0Q193 665 193 708Q193 758 208.0 802.0Q223 846 250.0 881.0Q277 916 315.0 941.5Q353 967 400.0 980.5Q447 994 500 994Q556 994 607.0 979.0Q658 964 698.5 936.5Q739 909 765 873Q778 855 777.0 841.0Q776 827 760 816Q746 804 732.0 805.5Q718 807 703 822Q680 848 647.5 867.5Q615 887 575.0 897.0Q535 907 488 907Q443 907 405.5 892.5Q368 878 340.5 852.0Q313 826 298.5 789.5Q284 753 284 710Q284 663 306.0 628.0Q328 593 368.0 573.0Q408 553 463 553H592Q608 553 612.5 544.5Q617 536 613 513Q610 492 602.0 482.5Q594 473 579 473H449Q391 473 341.0 455.0Q291 437 254.0 403.5Q217 370 196.0 326.0Q175 282 175 232Q175 179 199.0 142.5Q223 106 268.0 87.5Q313 69 373 69Q427 69 475.0 87.5Q523 106 565.0 142.0Q607 178 640 228Q654 249 667.5 250.0Q681 251 698 239Q714 229 714.0 215.0Q714 201 702 181Q661 118 609.5 73.5Q558 29 495.5 5.0Q433 -19 361 -19Z" transform="translate(463.10400000000004, 72) scale(0.072, -0.072)" /><path d="M350 -14Q329 -14 317.5 -4.5Q306 5 302 33L146 949Q144 967 153.5 978.0Q163 989 187 993Q209 996 218.5 990.5Q228 985 230 968L372 124L809 965Q821 986 833.0 991.0Q845 996 868 993Q892 989 899.5 976.0Q907 963 897 945L413 26Q401 4 388.0 -5.0Q375 -14 350 -14Z" transform="translate(539.5680000000001, 72) scale(0.072, -0.072)" /><path d="M20 -14Q-6 -14 -14.5 0.0Q-23 14 -12 35L471 954Q483 977 496.5 985.5Q510 994 534 994Q555 994 566.5 985.0Q578 976 582 948L753 31Q757 11 746.0 -1.5Q735 -14 709 -14Q687 -14 678.5 -5.5Q670 3 666 23L623 269H207L78 25Q65 1 54.5 -6.5Q44 -14 20 -14ZM249 349H608L513 857Z" transform="translate(596.5200000000001, 72) scale(0.072, -0.072)" /></g></svg>
